assets/icons/qvision/timer_10.svg

<svg xmlns="http://www.w3.org/2000/svg" height="24" viewBox="0 0 24 24" width="24"><path d="M0 0h24v24H0zm0 0h24v24H0z" fill="none"/><path d="M0 7.72V9.4l3-1V18h2V6h-.25L0 7.72zm23.78 6.65c-.14-.28-.35-.53-.63-.74-.28-.21-.61-.39-1.01-.53s-.85-.27-1.35-.38c-.35-.07-.64-.15-.87-.23-.23-.08-.41-.16-.55-.25-.14-.09-.23-.19-.28-.3-.05-.11-.08-.24-.08-.39 0-.14.03-.28.09-.41.06-.13.15-.25.27-.34.12-.1.27-.18.45-.24s.4-.09.64-.09c.25 0 .47.04.66.11.19.07.35.17.48.29.13.12.22.26.29.42.06.16.1.32.1.49h1.95c0-.39-.08-.75-.24-1.09-.16-.34-.39-.63-.69-.88-.3-.25-.66-.44-1.09-.59C21.49 9.07 21 9 20.46 9c-.51 0-.98.07-1.39.21-.41.14-.77.33-1.06.57-.29.24-.51.52-.67.84-.16.32-.23.65-.23 1.01s.08.69.23.96c.15.28.36.52.64.73.27.21.6.38.98.53.38.14.81.26 1.27.36.39.08.71.17.95.26s.43.19.57.29c.13.1.22.22.27.34.05.12.07.25.07.39 0 .32-.13.57-.4.77-.27.2-.66.29-1.17.29-.22 0-.43-.02-.64-.08-.21-.05-.4-.13-.56-.24-.17-.11-.3-.26-.41-.44-.11-.18-.17-.41-.18-.67h-1.89c0 .36.08.71.24 1.05.16.34.39.65.7.93.31.27.69.49 1.15.66.46.17.98.25 1.58.25.53 0 1.01-.06 1.44-.19.43-.13.8-.31 1.11-.54.31-.23.54-.51.71-.83.17-.32.25-.67.25-1.06-.02-.4-.09-.74-.24-1.02zm-9.96-7.32c-.34-.4-.75-.7-1.23-.88-.47-.18-1.01-.27-1.59-.27-.58 0-1.11.09-1.59.27-.48.18-.89.47-1.23.88-.34.41-.6.93-.79 1.59-.18.65-.28 1.45-.28 2.39v1.92c0 .94.09 1.74.28 2.39.19.66.45 1.19.8 1.6.34.41.75.71 1.23.89.48.18 1.01.28 1.59.28.59 0 1.12-.09 1.59-.28.48-.18.88-.48 1.22-.89.34-.41.6-.94.78-1.6.18-.65.28-1.45.28-2.39v-1.92c0-.94-.09-1.74-.28-2.39-.18-.66-.44-1.19-.78-1.59zm-.92 6.17c0 .6-.04 1.11-.12 1.53-.08.42-.2.76-.36 1.02-.16.26-.36.45-.59.57-.23.12-.51.18-.82.18-.3 0-.58-.06-.82-.18s-.44-.31-.6-.57c-.16-.26-.29-.6-.38-1.02-.09-.42-.13-.93-.13-1.53v-2.5c0-.6.04-1.11.13-1.52.09-.41.21-.74.38-1 .16-.25.36-.43.6-.55.24-.11.51-.17.81-.17.31 0 .58.06.81.17.24.11.44.29.6.55.16.25.29.58.37.99.08.41.13.92.13 1.52v2.51z"/></svg>

<svg width="24" height="24" viewBox="0 0 24 24" fill="none" xmlns="http://www.w3.org/2000/svg">
<g clip-path="url(#clip0_147_3746)">
<path d="M0 7.72V9.4L3 8.4V18H5V6H4.75L0 7.72ZM23.78 14.37C23.64 14.09 23.43 13.84 23.15 13.63C22.87 13.42 22.54 13.24 22.14 13.1C21.74 12.96 21.29 12.83 20.79 12.72C20.44 12.65 20.15 12.57 19.92 12.49C19.69 12.41 19.51 12.33 19.37 12.24C19.23 12.15 19.14 12.05 19.09 11.94C19.04 11.83 19.01 11.7 19.01 11.55C19.01 11.41 19.04 11.27 19.1 11.14C19.16 11.01 19.25 10.89 19.37 10.8C19.49 10.7 19.64 10.62 19.82 10.56C20 10.5 20.22 10.47 20.46 10.47C20.71 10.47 20.93 10.51 21.12 10.58C21.31 10.65 21.47 10.75 21.6 10.87C21.73 10.99 21.82 11.13 21.89 11.29C21.95 11.45 21.99 11.61 21.99 11.78H23.94C23.94 11.39 23.86 11.03 23.7 10.69C23.54 10.35 23.31 10.06 23.01 9.81C22.71 9.56 22.35 9.37 21.92 9.22C21.49 9.07 21 9 20.46 9C19.95 9 19.48 9.07 19.07 9.21C18.66 9.35 18.3 9.54 18.01 9.78C17.72 10.02 17.5 10.3 17.34 10.62C17.18 10.94 17.11 11.27 17.11 11.63C17.11 11.99 17.19 12.32 17.34 12.59C17.49 12.87 17.7 13.11 17.98 13.32C18.25 13.53 18.58 13.7 18.96 13.85C19.34 13.99 19.77 14.11 20.23 14.21C20.62 14.29 20.94 14.38 21.18 14.47C21.42 14.56 21.61 14.66 21.75 14.76C21.88 14.86 21.97 14.98 22.02 15.1C22.07 15.22 22.09 15.35 22.09 15.49C22.09 15.81 21.96 16.06 21.69 16.26C21.42 16.46 21.03 16.55 20.52 16.55C20.3 16.55 20.09 16.53 19.88 16.47C19.67 16.42 19.48 16.34 19.32 16.23C19.15 16.12 19.02 15.97 18.91 15.79C18.8 15.61 18.74 15.38 18.73 15.12H16.84C16.84 15.48 16.92 15.83 17.08 16.17C17.24 16.51 17.47 16.82 17.78 17.1C18.09 17.37 18.47 17.59 18.93 17.76C19.39 17.93 19.91 18.01 20.51 18.01C21.04 18.01 21.52 17.95 21.95 17.82C22.38 17.69 22.75 17.51 23.06 17.28C23.37 17.05 23.6 16.77 23.77 16.45C23.94 16.13 24.02 15.78 24.02 15.39C24 14.99 23.93 14.65 23.78 14.37ZM13.82 7.05C13.48 6.65 13.07 6.35 12.59 6.17C12.12 5.99 11.58 5.9 11 5.9C10.42 5.9 9.89 5.99 9.41 6.17C8.93 6.35 8.52 6.64 8.18 7.05C7.84 7.46 7.58 7.98 7.39 8.64C7.21 9.29 7.11 10.09 7.11 11.03V12.95C7.11 13.89 7.2 14.69 7.39 15.34C7.58 16 7.84 16.53 8.19 16.94C8.53 17.35 8.94 17.65 9.42 17.83C9.9 18.01 10.43 18.11 11.01 18.11C11.6 18.11 12.13 18.02 12.6 17.83C13.08 17.65 13.48 17.35 13.82 16.94C14.16 16.53 14.42 16 14.6 15.34C14.78 14.69 14.88 13.89 14.88 12.95V11.03C14.88 10.09 14.79 9.29 14.6 8.64C14.42 7.98 14.16 7.45 13.82 7.05ZM12.9 13.22C12.9 13.82 12.86 14.33 12.78 14.75C12.7 15.17 12.58 15.51 12.42 15.77C12.26 16.03 12.06 16.22 11.83 16.34C11.6 16.46 11.32 16.52 11.01 16.52C10.71 16.52 10.43 16.46 10.19 16.34C9.95 16.22 9.75 16.03 9.59 15.77C9.43 15.51 9.3 15.17 9.21 14.75C9.12 14.33 9.08 13.82 9.08 13.22V10.72C9.08 10.12 9.12 9.61 9.21 9.2C9.3 8.79 9.42 8.46 9.59 8.2C9.75 7.95 9.95 7.77 10.19 7.65C10.43 7.54 10.7 7.48 11 7.48C11.31 7.48 11.58 7.54 11.81 7.65C12.05 7.76 12.25 7.94 12.41 8.2C12.57 8.45 12.7 8.78 12.78 9.19C12.86 9.6 12.91 10.11 12.91 10.71V13.22H12.9Z" fill="#323232"/>
</g>
<defs>
<clipPath id="clip0_147_3746">
<rect width="24" height="24" fill="white"/>
</clipPath>
</defs>
</svg>
